22x22/actions/fcitx-handwriting-active.svg

<svg xmlns="http://www.w3.org/2000/svg" width="22" height="22" version="1.1">
 <defs>
  <style id="current-color-scheme" type="text/css">
   .ColorScheme-Text { color:#323a41; } .ColorScheme-Highlight { color:#4285f4; } .ColorScheme-NeutralText { color:#ff9800; } .ColorScheme-PositiveText { color:#4caf50; } .ColorScheme-NegativeText { color:#f44336; }
  </style>
 </defs>
 <g transform="translate(3,3)">
  <path style="fill:currentColor" class="ColorScheme-Text" d="M 2,0 C 2,0 0,0 0,2 V 14 C 0,16 2,16 2,16 H 14 C 14,16 16,16 16,14 V 2 C 16,0 14,0 14,0 Z M 11.611,2 C 11.793,2 11.974,2.0709 12.119,2.2109 L 13.789,3.8809 C 14.069,4.1609 14.069,4.6106 13.789,4.8906 L 12.381,6.2891 9.7109,3.6094 11.109,2.2109 C 11.249,2.0709 11.43,2 11.611,2 Z M 8.75,4.5703 11.42,7.25 4.6699,14 H 2 V 11.32 Z"/>
 </g>
</svg>

<svg xmlns="http://www.w3.org/2000/svg" width="22" height="22"><defs><style id="current-color-scheme" type="text/css"></style></defs><path style="fill:currentColor;color:#323a41" d="M2 0S0 0 0 2v12c0 2 2 2 2 2h12s2 0 2-2V2c0-2-2-2-2-2zm9.611 2a.73.73 0 0 1 .508.21l1.67 1.67c.28.28.28.73 0 1.01l-1.408 1.4-2.67-2.68 1.398-1.4c.14-.14.321-.21.502-.21zM8.75 4.57l2.67 2.68L4.67 14H2v-2.68z" transform="translate(3 3)"/></svg>
